website/static/img/navbar-logo-desktop-laptop-tablet-light.svg

<svg width="254" height="34" viewBox="0 0 254 34" fill="none" xmlns="http://www.w3.org/2000/svg">
<path fill-rule="evenodd" clip-rule="evenodd" d="M31.5412 10.9073C33.4058 10.861 35.3708 10.2105 37.6304 8.90843C38.2243 7.94155 38.6956 7.02312 39.0638 6.18082L40.8934 5.64941C40.4362 6.89724 39.7584 8.33661 38.7964 9.87433C39.1147 14.6812 37.1717 19.6613 33.8614 23.4645C30.4563 27.3764 25.5465 30.1091 20.0249 30.1091C18.4971 30.1091 16.9728 29.9888 15.4549 29.8235C16.3682 28.7607 17.2845 27.6938 17.7106 26.3342C15.5641 27.2315 13.2984 27.9538 11.0001 28.3436C6.40738 25.9563 1.47243 21.9669 0.782227 16.4809C4.59692 9.76201 12.464 6.19081 20.0442 7.19905C20.9858 9.49385 22.6195 11.1268 24.8022 12.2802C24.6517 11.0138 24.6981 9.72859 24.6981 8.45548C26.8116 9.76131 28.9685 10.9712 31.5412 10.9073ZM35.8381 11.4621C33.7685 14.0712 30.8047 16.8403 26.6297 19.3186C26.2081 18.5336 25.3793 17.9998 24.4259 17.9998C23.7684 17.9998 23.1703 18.2536 22.724 18.6685L17.7542 15.3824C18.0692 13.8661 16.872 12.3714 15.3065 12.3714C13.78 12.3714 12.5913 13.7941 12.8408 15.2867L4.92001 21.7452C3.04759 19.4381 2.49292 17.4541 2.34677 16.7805C5.88373 11.1946 12.3872 7.84514 18.9999 8.57798C20.5942 11.9965 23.8597 13.472 27.017 15.0697C26.6424 13.7503 26.2695 12.4767 26.2155 11.0949C28.0025 12.0082 29.7591 12.452 31.5785 12.4069C32.9783 12.3721 34.384 12.0485 35.8381 11.4621ZM26.8938 20.9016C31.6802 18.148 35.0125 15.0029 37.2856 12.0456C36.9981 15.7484 35.3368 19.4848 32.7299 22.4796C29.0263 26.7347 23.895 28.8259 18.3182 28.5843C19.2155 27.0856 19.4176 25.6009 19.4176 23.9051C16.8051 25.1381 14.0833 26.2131 11.2408 26.7767C8.91686 25.5402 7.19418 24.1792 5.91812 22.8667L13.5464 16.6468C13.9982 17.0948 14.62 17.3714 15.3065 17.3714C15.9686 17.3714 16.5706 17.114 17.0179 16.6938L21.981 19.9755C21.6567 21.495 22.8548 22.9998 24.4259 22.9998C25.6698 22.9998 26.7016 22.0913 26.8938 20.9016Z" fill="black"/>
<path d="M49.2559 26H59.7199V23.888H51.4879V8.96002H49.2559V26Z" fill="black"/>
<path d="M64.0849 9.32002C64.0849 8.52802 63.4609 7.85602 62.6449 7.85602C61.8289 7.85602 61.1569 8.52802 61.1569 9.32002C61.1569 10.136 61.8289 10.784 62.6449 10.784C63.4609 10.784 64.0849 10.136 64.0849 9.32002ZM61.5889 26H63.6529V14H61.5889V26Z" fill="black"/>
<path d="M78.2694 25.304V14H76.2054V15.848C75.3894 14.648 73.8054 13.76 72.0294 13.76C68.6934 13.76 66.1494 16.448 66.1494 19.856C66.1494 23.288 68.6934 25.976 72.0294 25.976C73.8054 25.976 75.3894 25.064 76.2054 23.864V25.232C76.2054 28.112 74.2374 29.384 72.1974 29.384C70.3494 29.384 68.9574 28.592 67.9974 27.368L66.5574 28.808C67.5894 30.152 69.6054 31.256 72.1974 31.256C75.6294 31.256 78.2694 29.312 78.2694 25.304ZM68.2614 19.856C68.2614 17.456 69.9174 15.656 72.3174 15.656C74.7174 15.656 76.3734 17.456 76.3734 19.856C76.3734 22.28 74.7174 24.056 72.3174 24.056C69.9174 24.056 68.2614 22.28 68.2614 19.856Z" fill="black"/>
<path d="M81.6757 26H83.7397V20.048C83.7397 17.24 85.2757 15.656 87.2197 15.656C88.8997 15.656 90.0517 16.904 90.0517 18.92V26H92.0917V18.608C92.0917 15.632 90.2437 13.76 87.5557 13.76C85.9957 13.76 84.5557 14.432 83.7397 15.848V8.00002H81.6757V26Z" fill="black"/>
<path d="M101.692 25.832V23.984C101.308 24.128 100.732 24.224 100.228 24.224C98.9319 24.224 98.2359 23.72 98.2359 22.184V15.896H101.692V14H98.2359V10.664H96.1719V14H93.6279V15.896H96.1719V22.448C96.1719 24.944 97.7559 26.12 99.8439 26.12C100.588 26.12 101.188 26 101.692 25.832Z" fill="black"/>
<path d="M114.025 26H115.849L119.929 14H117.745L114.841 22.76L111.841 14H110.257L107.257 22.76L104.353 14H102.193L106.273 26H108.097L111.073 17.36L114.025 26Z" fill="black"/>
<path d="M120.69 20C120.69 23.528 123.186 26.24 126.906 26.24C129.402 26.24 131.226 25.136 132.306 23.384L130.674 22.256C129.93 23.528 128.778 24.344 126.93 24.344C124.554 24.344 122.85 22.664 122.778 20.408H132.618C132.642 20.144 132.642 20 132.642 19.784C132.618 15.944 130.074 13.76 126.93 13.76C123.282 13.76 120.69 16.496 120.69 20ZM126.858 15.584C128.682 15.584 130.242 16.76 130.53 18.728H122.922C123.306 16.736 125.058 15.584 126.858 15.584Z" fill="black"/>
<path d="M137.588 9.32002C137.588 8.52802 136.964 7.85602 136.148 7.85602C135.332 7.85602 134.66 8.52802 134.66 9.32002C134.66 10.136 135.332 10.784 136.148 10.784C136.964 10.784 137.588 10.136 137.588 9.32002ZM135.092 26H137.156V14H135.092V26Z" fill="black"/>
<path d="M151.772 25.304V14H149.708V15.848C148.892 14.648 147.308 13.76 145.532 13.76C142.196 13.76 139.652 16.448 139.652 19.856C139.652 23.288 142.196 25.976 145.532 25.976C147.308 25.976 148.892 25.064 149.708 23.864V25.232C149.708 28.112 147.74 29.384 145.7 29.384C143.852 29.384 142.46 28.592 141.5 27.368L140.06 28.808C141.092 30.152 143.108 31.256 145.7 31.256C149.132 31.256 151.772 29.312 151.772 25.304ZM141.764 19.856C141.764 17.456 143.42 15.656 145.82 15.656C148.22 15.656 149.876 17.456 149.876 19.856C149.876 22.28 148.22 24.056 145.82 24.056C143.42 24.056 141.764 22.28 141.764 19.856Z" fill="black"/>
<path d="M155.179 26H157.243V20.048C157.243 17.24 158.779 15.656 160.723 15.656C162.403 15.656 163.555 16.904 163.555 18.92V26H165.595V18.608C165.595 15.632 163.747 13.76 161.059 13.76C159.499 13.76 158.059 14.432 157.243 15.848V8.00002H155.179V26Z" fill="black"/>
<path d="M175.195 25.832V23.984C174.811 24.128 174.235 24.224 173.731 24.224C172.435 24.224 171.739 23.72 171.739 22.184V15.896H175.195V14H171.739V10.664H169.675V14H167.131V15.896H169.675V22.448C169.675 24.944 171.259 26.12 173.347 26.12C174.091 26.12 174.691 26 175.195 25.832Z" fill="black"/>
<path d="M181.796 17.48C181.796 22.424 185.708 26.288 190.604 26.288C193.844 26.288 196.604 24.68 198.14 22.16L196.268 21.032C195.092 22.928 193.1 24.176 190.604 24.176C186.884 24.176 184.052 21.224 184.052 17.48C184.052 13.736 186.884 10.784 190.604 10.784C193.1 10.784 195.092 12.032 196.268 13.928L198.14 12.8C196.604 10.28 193.844 8.67202 190.604 8.67202C185.708 8.67202 181.796 12.536 181.796 17.48Z" fill="black"/>
<path d="M200.298 26H202.362V20.048C202.362 17.24 203.898 15.656 205.842 15.656C207.522 15.656 208.674 16.904 208.674 18.92V26H210.714V18.608C210.714 15.632 208.866 13.76 206.178 13.76C204.618 13.76 203.178 14.432 202.362 15.848V8.00002H200.298V26Z" fill="black"/>
<path d="M213.014 20C213.014 23.432 215.534 26.24 218.894 26.24C220.694 26.24 222.326 25.304 223.118 24.152V26H225.182V14H223.118V15.848C222.326 14.696 220.694 13.76 218.894 13.76C215.534 13.76 213.014 16.568 213.014 20ZM223.286 20C223.286 22.424 221.63 24.344 219.206 24.344C216.782 24.344 215.102 22.424 215.102 20C215.102 17.576 216.782 15.656 219.206 15.656C221.63 15.656 223.286 17.576 223.286 20Z" fill="black"/>
<path d="M228.588 26H230.652V20.048C230.652 17.24 232.308 15.92 233.82 15.92C234.228 15.92 234.564 15.968 234.948 16.112V13.976C234.612 13.904 234.324 13.88 234.012 13.88C232.62 13.88 231.132 14.792 230.652 16.328V14H228.588V26Z" fill="black"/>
<path d="M243.401 25.832V23.984C243.017 24.128 242.441 24.224 241.937 24.224C240.641 24.224 239.945 23.72 239.945 22.184V15.896H243.401V14H239.945V10.664H237.881V14H235.337V15.896H237.881V22.448C237.881 24.944 239.465 26.12 241.553 26.12C242.297 26.12 242.897 26 243.401 25.832Z" fill="black"/>
<path d="M253.357 22.64C253.357 20.816 252.157 19.736 250.093 19.112L248.773 18.704C247.453 18.296 247.069 17.696 247.069 16.976C247.069 16.088 248.053 15.536 249.061 15.536C250.213 15.536 251.029 16.136 251.557 16.904L253.093 15.848C252.301 14.504 250.909 13.76 249.133 13.76C246.829 13.76 245.029 14.984 245.005 17.048C245.005 18.728 246.037 19.976 248.005 20.552L249.205 20.936C250.765 21.416 251.293 21.944 251.293 22.808C251.293 23.84 250.357 24.416 249.205 24.416C247.885 24.416 246.589 23.744 246.157 22.52L244.477 23.456C245.197 25.328 247.045 26.24 249.181 26.24C251.581 26.24 253.357 24.944 253.357 22.64Z" fill="black"/>
</svg>

<svg xmlns="http://www.w3.org/2000/svg" width="254" height="34" viewBox="0 0 254 34"><path fill-rule="evenodd" d="M31.54 10.9c1.87-.04 3.83-.69 6.09-2 .6-.96 1.07-1.88 1.43-2.72l1.83-.53a22.86 22.86 0 0 1-2.1 4.22c.32 4.81-1.62 9.8-4.93 13.6-3.4 3.9-8.31 6.64-13.84 6.64-1.52 0-3.05-.12-4.57-.29.92-1.06 1.83-2.13 2.26-3.49-2.15.9-4.41 1.62-6.71 2.01C6.4 25.96 1.47 21.97.78 16.48 4.6 9.76 12.46 6.2 20.04 7.2a9.9 9.9 0 0 0 4.76 5.08c-.15-1.27-.1-2.55-.1-3.82 2.11 1.3 4.27 2.51 6.84 2.45Zm4.3.56a33.3 33.3 0 0 1-9.21 7.86 2.5 2.5 0 0 0-3.9-.65l-4.98-3.29a2.53 2.53 0 0 0-2.44-3 2.53 2.53 0 0 0-2.47 2.9l-7.92 6.47a12.31 12.31 0 0 1-2.57-4.97C5.88 11.2 12.39 7.85 19 8.58c1.6 3.42 4.86 4.9 8.02 6.49-.38-1.32-.75-2.6-.8-3.98a11 11 0 0 0 5.36 1.32c1.4-.04 2.8-.36 4.26-.95Zm-8.95 9.44a34.82 34.82 0 0 0 10.4-8.85 18.38 18.38 0 0 1-4.56 10.43 17.68 17.68 0 0 1-14.41 6.1c.9-1.5 1.1-2.98 1.1-4.67a35.5 35.5 0 0 1-8.18 2.87 21.29 21.29 0 0 1-5.32-3.91l7.63-6.22a2.5 2.5 0 0 0 3.47.04l4.96 3.29A2.53 2.53 0 0 0 24.43 23a2.5 2.5 0 0 0 2.46-2.1Z"/><path d="M49.26 26h10.46v-2.11h-8.23V8.96h-2.23V26ZM64.08 9.32c0-.8-.62-1.46-1.44-1.46a1.5 1.5 0 0 0-1.48 1.46c0 .82.67 1.46 1.48 1.46.82 0 1.44-.64 1.44-1.46ZM61.58 26h2.07V14H61.6v12ZM78.27 25.3V14H76.2v1.85a5.1 5.1 0 0 0-4.18-2.09 5.9 5.9 0 0 0-5.88 6.1c0 3.43 2.54 6.12 5.88 6.12 1.78 0 3.36-.92 4.18-2.12v1.37c0 2.88-1.97 4.15-4.01 4.15-1.85 0-3.24-.79-4.2-2.01l-1.44 1.44c1.03 1.34 3.05 2.45 5.64 2.45 3.43 0 6.07-1.95 6.07-5.96Zm-10-5.44c0-2.4 1.65-4.2 4.05-4.2s4.05 1.8 4.05 4.2c0 2.42-1.65 4.2-4.05 4.2s-4.06-1.78-4.06-4.2ZM81.68 26h2.06v-5.95c0-2.81 1.54-4.4 3.48-4.4 1.68 0 2.83 1.25 2.83 3.27V26h2.04v-7.4c0-2.97-1.85-4.84-4.53-4.84-1.56 0-3 .67-3.82 2.09V8h-2.06v18ZM101.7 25.83v-1.85c-.4.15-.97.24-1.47.24-1.3 0-2-.5-2-2.04V15.9h3.46V14h-3.45v-3.34h-2.07V14h-2.54v1.9h2.54v6.55c0 2.5 1.59 3.67 3.67 3.67.75 0 1.35-.12 1.85-.29ZM114.03 26h1.82l4.08-12h-2.19l-2.9 8.76-3-8.76h-1.58l-3 8.76-2.9-8.76h-2.17l4.08 12h1.83l2.97-8.64 2.96 8.64ZM120.69 20a6 6 0 0 0 6.22 6.24c2.5 0 4.32-1.1 5.4-2.86l-1.64-1.12a4.01 4.01 0 0 1-3.74 2.08 3.99 3.99 0 0 1-4.15-3.93h9.84c.02-.27.02-.41.02-.63-.02-3.84-2.57-6.02-5.71-6.02a6.08 6.08 0 0 0-6.24 6.24Zm6.17-4.42a3.59 3.59 0 0 1 3.67 3.15h-7.6c.38-2 2.13-3.15 3.93-3.15ZM137.59 9.32c0-.8-.63-1.46-1.44-1.46a1.5 1.5 0 0 0-1.49 1.46c0 .82.67 1.46 1.49 1.46.81 0 1.44-.64 1.44-1.46ZM135.09 26h2.07V14h-2.07v12ZM151.77 25.3V14h-2.06v1.85a5.1 5.1 0 0 0-4.18-2.09 5.9 5.9 0 0 0-5.88 6.1c0 3.43 2.55 6.12 5.88 6.12 1.78 0 3.36-.92 4.18-2.12v1.37c0 2.88-1.97 4.15-4.01 4.15-1.85 0-3.24-.79-4.2-2.01l-1.44 1.44c1.03 1.34 3.05 2.45 5.64 2.45 3.43 0 6.07-1.95 6.07-5.96Zm-10-5.44c0-2.4 1.65-4.2 4.05-4.2s4.06 1.8 4.06 4.2c0 2.42-1.66 4.2-4.06 4.2-2.4 0-4.06-1.78-4.06-4.2ZM155.18 26h2.06v-5.95c0-2.81 1.54-4.4 3.48-4.4 1.68 0 2.84 1.25 2.84 3.27V26h2.03v-7.4c0-2.97-1.84-4.84-4.53-4.84-1.56 0-3 .67-3.82 2.09V8h-2.06v18ZM175.2 25.83v-1.85c-.39.15-.96.24-1.47.24-1.3 0-2-.5-2-2.04V15.9h3.47V14h-3.46v-3.34h-2.06V14h-2.55v1.9h2.55v6.55c0 2.5 1.58 3.67 3.67 3.67.74 0 1.34-.12 1.84-.29ZM181.8 17.48c0 4.94 3.9 8.8 8.8 8.8 3.24 0 6-1.6 7.54-4.12l-1.87-1.13a6.51 6.51 0 0 1-5.67 3.15 6.53 6.53 0 0 1-6.55-6.7c0-3.74 2.83-6.7 6.55-6.7 2.5 0 4.5 1.25 5.67 3.15l1.87-1.13a8.69 8.69 0 0 0-7.54-4.13c-4.9 0-8.8 3.87-8.8 8.81ZM200.3 26h2.06v-5.95c0-2.81 1.54-4.4 3.48-4.4 1.68 0 2.83 1.25 2.83 3.27V26h2.04v-7.4c0-2.97-1.84-4.84-4.53-4.84-1.56 0-3 .67-3.82 2.09V8h-2.06v18ZM213.01 20c0 3.43 2.52 6.24 5.88 6.24 1.8 0 3.44-.94 4.23-2.09V26h2.06V14h-2.06v1.85a5.26 5.26 0 0 0-4.23-2.09c-3.36 0-5.88 2.8-5.88 6.24Zm10.28 0c0 2.42-1.66 4.34-4.08 4.34-2.43 0-4.1-1.92-4.1-4.34s1.67-4.34 4.1-4.34c2.42 0 4.08 1.92 4.08 4.34ZM228.59 26h2.06v-5.95c0-2.81 1.66-4.13 3.17-4.13.4 0 .74.05 1.13.2v-2.14a3.57 3.57 0 0 0-4.3 2.35V14h-2.06v12ZM243.4 25.83v-1.85c-.38.15-.96.24-1.46.24-1.3 0-2-.5-2-2.04V15.9h3.46V14h-3.46v-3.34h-2.06V14h-2.54v1.9h2.54v6.55c0 2.5 1.59 3.67 3.67 3.67.75 0 1.35-.12 1.85-.29ZM253.36 22.64c0-1.82-1.2-2.9-3.27-3.53l-1.32-.4c-1.32-.41-1.7-1.01-1.7-1.73 0-.9.98-1.44 2-1.44 1.14 0 1.96.6 2.49 1.36l1.53-1.05c-.79-1.35-2.18-2.09-3.96-2.09-2.3 0-4.1 1.22-4.13 3.29 0 1.68 1.04 2.93 3 3.5l1.2.39c1.56.48 2.1 1 2.1 1.87 0 1.03-.94 1.6-2.1 1.6-1.31 0-2.61-.67-3.04-1.89l-1.68.94c.72 1.87 2.56 2.78 4.7 2.78 2.4 0 4.18-1.3 4.18-3.6Z"/></svg>
